Enavato/img/faceb.svg

<svg xmlns="http://www.w3.org/2000/svg" width="47" height="47" viewBox="0 0 47 47"><filter filterUnits="objectBoundingBox" x="-2.22" y="-2.22" width="104.44" height="106.67" id="a"><feGaussianBlur in="SourceAlpha" stdDeviation=".5" result="dsBlurOut1"/><feFlood flood-color="#000" flood-opacity=".25" result="dsFloodOut1"/><feComposite in="dsFloodOut1" in2="dsBlurOut1" operator="in" result="dsShadow1"/><feOffset in="dsShadow1" dy="1" result="dsOffset1"/><feComposite in="dsOffset1" in2="SourceAlpha" operator="out" result="dropShadow1"/><feBlend in="dropShadow1" in2="SourceGraphic" result="sourceGraphic"/></filter><path d="M23.5 45C11.07 45 1 34.93 1 22.5S11.07 0 23.5 0 46 10.07 46 22.5 35.93 45 23.5 45zm.54-34.83c-5.08 0-3.92 6.03-4.09 8.23 0 .01-3.11 0-3.11 0v4.09h3.1v14.39h5.15l-.01-14.39h3.45l.67-4.12-4.11.05c0-2.92-.23-4.11 1.48-4.11h2.65v-4.14h-5.18z" fill="#FFF" filter="url(#a)"/></svg>

<?xml version="1.0" encoding="utf-8"?>
<svg xmlns="http://www.w3.org/2000/svg"
	xmlns:xlink="http://www.w3.org/1999/xlink"
	width="47px" height="47px" viewBox="0 0 47 47">
<filter filterUnits="objectBoundingBox" x="-2.22" y="-2.22" width="104.44" height="106.67" id="filter0">
<feGaussianBlur in="SourceAlpha" stdDeviation="0.50" result="dsBlurOut1"/>
<feFlood flood-color="rgb(0,0,0)" flood-opacity="0.25" result="dsFloodOut1"/>
<feComposite in="dsFloodOut1" in2="dsBlurOut1" operator="in" result="dsShadow1"/>
<feOffset in="dsShadow1" dx="-0.00" dy="1.00" result="dsOffset1"/>
<feComposite in="dsOffset1" in2="SourceAlpha" operator="out" result="dropShadow1"/>
<feBlend in="dropShadow1" in2="SourceGraphic" mode="normal" result="sourceGraphic"/>
</filter>
<path fillRule="evenodd" d="M 23.5 45C 11.07 45 1 34.93 1 22.5 1 10.07 11.07-0 23.5-0 35.93-0 46 10.07 46 22.5 46 34.93 35.93 45 23.5 45ZM 24.04 10.17C 18.96 10.17 20.12 16.2 19.95 18.4 19.95 18.41 16.84 18.4 16.84 18.4 16.84 18.4 16.84 22.49 16.84 22.49 16.84 22.49 19.94 22.49 19.94 22.49 19.94 22.49 19.94 36.88 19.94 36.88 19.94 36.88 25.09 36.88 25.09 36.88 25.09 36.88 25.08 22.49 25.08 22.49 25.08 22.49 28.53 22.49 28.53 22.49 28.53 22.49 29.2 18.37 29.2 18.37 29.2 18.37 25.09 18.42 25.09 18.42 25.09 15.5 24.86 14.31 26.57 14.31 26.72 14.31 29.22 14.31 29.22 14.31 29.22 14.31 29.22 10.17 29.22 10.17 29.22 10.17 24.04 10.17 24.04 10.17Z" fill="rgb(255,255,255)" filter="url(#filter0)"/></svg>
